!!!OTL: Die untreue Braut, S. 51
!!!id: L0042
**kern
*clefG2
*k[b-e-a-]
*E-:
{16e-
16g
=1
8.b-
16cc
8b-
16a-
16f
=2
8.e-
16g
8f}
=3
{8f
=4
8g
8g
8a-
8cc
=5
4b-}
8r
=6
{16e-
16g
=7
8.b-
16cc
8b-
16a-
16f
=8
8.e-
16g
8f}
=9
{8f
=10
8g
8g
8a-
8cc
=11
4b-}
8r
=12
{16g
16a-
=13
8b-
8ee-
8dd
8cc
=14
8.b-
16cc
8b-}
=15
{8a-
=16
8g
8e-
16f
16g
8d
=17
4e-}
8r
==
*-
!!!minrhy: 16
!!!meters: 2/4 ]  ZZ[6
!!!cut1: Die untreue Braut, S. 51
!!!cut2: 2. Melodie
!!!reg: Luxemburg
!!!trd: Die Luxemburger Volkslieder &auml;lterer Zeit, Luxemburg 1904 posth.
!!!rhy1: XX  X_.XX_XX  X_.XX_
!!!rhy2: X_  X_X_X_X_  X__0_
!!!key: L0042  16 Eb 2/4 ]  ZZ[6
!!!mod: HEPTATONIK IONISCH]  AMBITUS[9b
!!!kad: 252551
!!!akz: 51_35_51_35_55_31_
!!!fot: 'a__b__a__b__c__d__
!!!for: 'a__b__a__b__bw_c__
!!!fok: '^a_/__^a_/__^a_Sd_
!! PHRAS[AUFTAKTIG]
!!!fkt: Hochzeitslied
!! KINTZELE
!! PR[44] 2K[0] 2G[4] 3K[9] 3G[4] 4A[2] 4Ü[0] 5A[4] 6K[0] 6G[0]
!! 7K[0] 7G[0] 8A[0] MEHR[0] SI[24] ABS[45] SR[4] SP[20]
!! ST[12] 2k[7] 2g[16] 3k[4] 3g[2] 4d[0] 4ü[0] 5d[2] 6k[0] 6g[0]
!! 7k[0] 7g[0] 8d[0] mehr[0] si[31] dm[-7] sr[22] sp[9]
!! 1F[18] 2F[73] 3F[6] 4F[0] LF[0] 2P[2] 3P[0] 4P[0] TRI[0] DF[4] AB[49]
!! TF[0] U3K[0] U3[0] U4[0] U4Ü[0] U5[4] U6K[0] U6[0] U7K[0] U7[2]
!! N1[15] N2K[0] N2[30] N3K[0] N3[22] N4[7] N4Ü[0] N5[15] N6K[0] N6[4]
!!!n7k: 0] N7[0] O1[0] O2K[0] O2[0] O3K[0] O3[0] HÖ[0
!!!RNB: symbol: &auml;      = a umlaut  (UTF-8: Å„)
